dist/img/svg/smile_icon.svg

<svg version="1.2" baseProfile="tiny-ps" xmlns="http://www.w3.org/2000/svg" width="1528" height="1530"><style>.shp0{fill:#fa8242}</style><g id="regular"><g id="&lt;Group&gt;"><path id="&lt;Path&gt;" class="shp0" d="M476 512.5c-85.74 0-155.5 69.76-155.5 155.5 0 23.99 19.51 43.5 43.5 43.5 23.98 0 43.5-19.51 43.5-43.5 0-37.77 30.73-68.5 68.5-68.5 37.77 0 68.5 30.73 68.5 68.5 0 23.99 19.51 43.5 43.5 43.5 23.98 0 43.5-19.51 43.5-43.5 0-85.74-69.76-155.5-155.5-155.5zm576 0c-85.74 0-155.5 69.76-155.5 155.5 0 23.99 19.51 43.5 43.5 43.5 23.98 0 43.5-19.51 43.5-43.5 0-37.77 30.73-68.5 68.5-68.5 37.77 0 68.5 30.73 68.5 68.5 0 23.99 19.51 43.5 43.5 43.5 23.98 0 43.5-19.51 43.5-43.5 0-85.74-69.76-155.5-155.5-155.5zm78.8 417.56c-8.22-8.22-19.15-12.74-30.77-12.74-11.62 0-22.55 4.52-30.77 12.74C987.73 1011.6 879.32 1056.5 764 1056.5c-115.37 0-223.76-44.93-305.2-126.51-8.22-8.21-19.15-12.74-30.77-12.74-11.62 0-22.55 4.53-30.77 12.75-8.22 8.22-12.74 19.14-12.74 30.77 0 11.62 4.52 22.55 12.74 30.77 97.93 97.99 228.17 151.96 366.74 151.96 138.52 0 268.78-53.94 366.8-151.9 8.22-8.22 12.75-19.14 12.75-30.77 0-11.62-4.53-22.55-12.75-30.77z"/><path id="&lt;Compound Path&gt;" fill-rule="evenodd" class="shp0" d="M1527.5 764c0 421-342.5 763.5-763.5 763.5-130.21 0-258.74-33.5-371.71-96.86l-2.92-1.64-2.41 2.33c-46.26 44.73-92.35 78.29-110 90.63-7.41 5.13-16.04 7.84-24.96 7.84-8.92 0-17.55-2.71-24.94-7.82C189.23 1495.46.5 1356.84.5 1231.2c0-51.55 29.2-99.67 76.22-125.57l3.76-2.07-1.9-3.85C27.5 995.92.5 879.83.5 764 .5 343 343 .5 764 .5c116.7 0 233.26 27.25 337.09 78.8l2.02 1 2.02-1.03c21.86-11.13 46.53-17.01 71.35-17.01 35.13 0 69.49 11.73 96.75 33.03l2.77 2.17 2.77-2.17c27.26-21.3 61.62-33.03 96.87-33.03 83.74 0 151.86 65.02 151.86 144.94 0 52.47-32.44 112.99-96.41 179.9l-2.31 2.41 1.64 2.91c63.51 112.49 97.08 240.98 97.08 371.58zm-87 0c0-107.57-25.91-214.33-74.94-308.73l-2.57-4.94-4.29 3.54c-25.79 21.27-47.26 36.76-57.74 44.09-7.41 5.13-16.04 7.84-24.96 7.84-8.92 0-17.55-2.71-24.94-7.82-37.83-26.52-226.56-165.15-226.56-290.78 0-19.76 4.13-38.94 12.27-57.02l1.87-4.14-4.16-1.83C950.08 107.11 856.55 87.5 764 87.5 390.98 87.5 87.5 390.98 87.5 764c0 112.08 28.23 223.15 81.65 321.21l1.1 2.02 2.29.29c28.13 3.56 54.65 14.55 76.69 31.77l2.77 2.16 2.77-2.16c27.26-21.3 61.62-33.03 96.75-33.03l.12-4.5v4.5c83.74 0 151.86 65.02 151.86 144.94 0 37.97-17.33 80.71-51.51 127.03l-3.13 4.23 4.68 2.43c95.26 49.47 202.62 75.61 310.46 75.61 373.02 0 676.5-303.48 676.5-676.5zm-1024 467.14c0-31.95-29.15-57.94-64.98-57.94-26.45 0-50.01 14.01-60.02 35.69-6.53 14.08-21.66 22.83-39.47 22.83s-32.93-8.75-39.47-22.84c-10.08-21.67-33.66-35.68-60.08-35.68-35.83 0-64.98 25.99-64.98 57.94 0 24.58 18.14 57.84 53.92 98.84 28.54 32.72 67.84 69.25 107.82 100.23l2.75 2.14 2.76-2.13c80.51-62.15 161.75-147.81 161.75-199.08zm695-1024c0 24.58 18.14 57.84 53.92 98.84 28.54 32.72 67.84 69.25 107.82 100.23l2.75 2.13 2.76-2.12c80.51-62.15 161.75-147.81 161.75-199.08 0-31.95-29.15-57.94-64.98-57.94-26.45 0-50.01 14.01-60.02 35.69-6.54 14.08-21.66 22.83-39.47 22.83s-32.93-8.75-39.47-22.83c-10.08-21.68-33.66-35.69-60.08-35.69-35.83 0-64.98 25.99-64.98 57.94z"/></g></g></svg>

<svg version="1.2" baseProfile="tiny-ps" xmlns="http://www.w3.org/2000/svg" viewBox="0 0 1528 1530" width="1528" height="1530">
	<title>regular</title>
	<style>
		tspan { white-space:pre }
		.shp0 { fill: #fa8242 } 
	</style>
	<g id="regular">
		<g id="&lt;Group&gt;">
			<path id="&lt;Path&gt;" class="shp0" d="M476 512.5C390.26 512.5 320.5 582.26 320.5 668C320.5 691.99 340.01 711.5 364 711.5C387.98 711.5 407.5 691.99 407.5 668C407.5 630.23 438.23 599.5 476 599.5C513.77 599.5 544.5 630.23 544.5 668C544.5 691.99 564.01 711.5 588 711.5C611.98 711.5 631.5 691.99 631.5 668C631.5 582.26 561.74 512.5 476 512.5Z" />
			<path id="&lt;Path&gt;" class="shp0" d="M1052 512.5C966.26 512.5 896.5 582.26 896.5 668C896.5 691.99 916.01 711.5 940 711.5C963.98 711.5 983.5 691.99 983.5 668C983.5 630.23 1014.23 599.5 1052 599.5C1089.77 599.5 1120.5 630.23 1120.5 668C1120.5 691.99 1140.01 711.5 1164 711.5C1187.98 711.5 1207.5 691.99 1207.5 668C1207.5 582.26 1137.74 512.5 1052 512.5Z" />
			<path id="&lt;Path&gt;" class="shp0" d="M1130.8 930.06C1122.58 921.84 1111.65 917.32 1100.03 917.32C1088.41 917.32 1077.48 921.84 1069.26 930.06C987.73 1011.6 879.32 1056.5 764 1056.5C648.63 1056.5 540.24 1011.57 458.8 929.99C450.58 921.78 439.65 917.25 428.03 917.25C416.41 917.25 405.48 921.78 397.26 930C389.04 938.22 384.52 949.14 384.52 960.77C384.52 972.39 389.04 983.32 397.26 991.54C495.19 1089.53 625.43 1143.5 764 1143.5C902.52 1143.5 1032.78 1089.56 1130.8 991.6C1139.02 983.38 1143.55 972.46 1143.55 960.83C1143.55 949.21 1139.02 938.28 1130.8 930.06Z" />
			<path id="&lt;Compound Path&gt;" fill-rule="evenodd" class="shp0" d="M1527.5 764C1527.5 1185 1185 1527.5 764 1527.5C633.79 1527.5 505.26 1494 392.29 1430.64L389.37 1429L386.96 1431.33C340.7 1476.06 294.61 1509.62 276.96 1521.96C269.55 1527.09 260.92 1529.8 252 1529.8C243.08 1529.8 234.45 1527.09 227.06 1521.98C189.23 1495.46 0.5 1356.84 0.5 1231.2C0.5 1179.65 29.7 1131.53 76.72 1105.63L80.48 1103.56L78.58 1099.71C27.5 995.92 0.5 879.83 0.5 764C0.5 343 343 0.5 764 0.5C880.7 0.5 997.26 27.75 1101.09 79.3L1103.11 80.3L1105.13 79.27C1126.99 68.14 1151.66 62.26 1176.48 62.26C1211.61 62.26 1245.97 73.99 1273.23 95.29L1276 97.46L1278.77 95.29C1306.03 73.99 1340.39 62.26 1375.64 62.26C1459.38 62.26 1527.5 127.28 1527.5 207.2C1527.5 259.67 1495.06 320.19 1431.09 387.1L1428.78 389.51L1430.42 392.42C1493.93 504.91 1527.5 633.4 1527.5 764ZM1440.5 764C1440.5 656.43 1414.59 549.67 1365.56 455.27L1362.99 450.33L1358.7 453.87C1332.91 475.14 1311.44 490.63 1300.96 497.96C1293.55 503.09 1284.92 505.8 1276 505.8C1267.08 505.8 1258.45 503.09 1251.06 497.98C1213.23 471.46 1024.5 332.83 1024.5 207.2C1024.5 187.44 1028.63 168.26 1036.77 150.18L1038.64 146.04L1034.48 144.21C950.08 107.11 856.55 87.5 764 87.5C390.98 87.5 87.5 390.98 87.5 764C87.5 876.08 115.73 987.15 169.15 1085.21L170.25 1087.23L172.54 1087.52C200.67 1091.08 227.19 1102.07 249.23 1119.29L252 1121.45L254.77 1119.29C282.03 1097.99 316.39 1086.26 351.52 1086.26L351.64 1081.76L351.64 1086.26C435.38 1086.26 503.5 1151.28 503.5 1231.2C503.5 1269.17 486.17 1311.91 451.99 1358.23L448.86 1362.46L453.54 1364.89C548.8 1414.36 656.16 1440.5 764 1440.5C1137.02 1440.5 1440.5 1137.02 1440.5 764ZM416.5 1231.14C416.5 1199.19 387.35 1173.2 351.52 1173.2C325.07 1173.2 301.51 1187.21 291.5 1208.89C284.97 1222.97 269.84 1231.72 252.03 1231.72C234.22 1231.72 219.1 1222.97 212.56 1208.88C202.48 1187.21 178.9 1173.2 152.48 1173.2C116.65 1173.2 87.5 1199.19 87.5 1231.14C87.5 1255.72 105.64 1288.98 141.42 1329.98C169.96 1362.7 209.26 1399.23 249.24 1430.21L251.99 1432.35L254.75 1430.22C335.26 1368.07 416.5 1282.41 416.5 1231.14ZM1111.5 207.14C1111.5 231.72 1129.64 264.98 1165.42 305.98C1193.96 338.7 1233.26 375.23 1273.24 406.21L1275.99 408.34L1278.75 406.22C1359.26 344.07 1440.5 258.41 1440.5 207.14C1440.5 175.19 1411.35 149.2 1375.52 149.2C1349.07 149.2 1325.51 163.21 1315.5 184.89C1308.96 198.97 1293.84 207.72 1276.03 207.72C1258.22 207.72 1243.1 198.97 1236.56 184.89C1226.48 163.21 1202.9 149.2 1176.48 149.2C1140.65 149.2 1111.5 175.19 1111.5 207.14Z" />
		</g>
	</g>
</svg>
